X: 19285
T: Izeru
R: mazurka
M: 3/4
K: Dmajor
AF|"D"D2 DE FG|A2 A2 BA|"G"GF GA Bc|"D"d2 d2 ed|
"A"c2 AG EF|"G"G2 G2 GE|"A"A2 AG EF|"D"D2 D2 AF|
"D"DA, DF AF|"G"G2 GF EF|GF GA BA|"D"F2 F2 AF|
"D"DA, DF AF|"G"GF EF GA|"A"BA Bc de|"D"d2 d2 cd|
"A"ed ce dc|A2 AG EF|"G"GF GA Bc|"D"d2 d2 ef|
"G"g2 eg fe|"D"f2 d2 cA|"G"AG EF GE|"A"A2 A2 cd|
"A"eA ~A2 eA|"D"fA ~A2 gf|"A"~e2 ed cB|"A"A2 A2 BA|
"G"GF GA Bc|"D"dD FA GF|"A"EF GA Bc|"D"d2 D z3|
"A"eA AA eA|"D"fA AA gf|"A"ed cB AG|A2 A2 BA|
"G"GF GA Bc|"D"dD FA GF|"A"EF GA Bc|"D"d2 D2 z2|

